X:669
T:Vals # 669
M:3/4
L:1/4
Q:180
K:G
GBd|GBd|gBd|GBB|(DF)A|(DF)A|edc|c{dc}B/c/ B/A/|
GBd|GBd|gBd|GBB|(DF)A|(DF)A|f2f|f3/e/ c/A/|GzG|
G2z:|d/B/GG/B/|d/B/GG/B/|g2f|f{gf}ee|e/c/AA|e/c/AA| f2e|
edd|d/B/GG|d/B/GG/B/|g2f|f{gf}ee|e/c/AA|e/c/AA|fzf|
f3/e/ c/A/|Gzg|gzz:|

